X: 771
T: Aird Ranters
R: strathspey
M: 4/4
K: Adorian
ea3 a3e|ge3 e4|ea3 a3e|ge3 d4|
ea3 a3e|ge3 e3d|cA3 A3G|cA3 A4:|
cA3 A3G|cA3 A3d|cA3 A3G|cA3 A4|
cA3 A3G|cA3 A3d|cA3 A3G|cA3 A4|

